src/containers/site/SiteRobotsScreen/asset/robots_feature_1.svg

<svg width="61" height="77" viewBox="0 0 61 77" fill="none" xmlns="http://www.w3.org/2000/svg">
<path fill-rule="evenodd" clip-rule="evenodd" d="M5.8696 74H59.1533C60.1816 74 61.0229 73.1505 60.9995 72.1122V14.6301C60.9995 14.111 60.8126 13.639 60.462 13.2851L47.8422 0.542729C47.4916 0.188776 47.0009 0 46.5101 0H5.8696C4.84132 0 4 0.84949 4 1.88776V72.1122C4 73.1505 4.84132 74 5.8696 74ZM57.2603 70.2245H7.73921V3.77551H45.7389L57.2603 15.4088V70.2245Z" fill="url(#paint0_linear)"/>
<path d="M0 7V77H53V19.7016L40.4419 7H0Z" fill="url(#paint1_linear)"/>
<path d="M7.87315 51C7.26233 51 6.65151 50.6953 6.29911 50.1327C5.73528 49.2653 5.9937 48.0932 6.86295 47.5306L17.0824 40.92C17.6463 40.5684 18.3276 40.5215 18.9384 40.8028L28.0537 45.2567L39.8473 34.4969C40.6225 33.7937 41.7972 33.8405 42.502 34.6141C43.2068 35.3877 43.1598 36.5598 42.3845 37.2631L29.6513 48.8668C29.0874 49.3825 28.2417 49.4997 27.5604 49.1715L18.2571 44.6238L8.93034 50.6484C8.57794 50.9062 8.22555 51 7.87315 51Z" fill="white"/>
<path d="M40.0779 39.4095L42.4655 41.7447C43.0039 42.2585 43.8934 41.9549 43.987 41.2076L44.9936 33.0108C45.0638 32.427 44.5488 31.9366 43.9636 32.0067L35.7709 33.1743C35.0219 33.2911 34.741 34.1785 35.2793 34.7156L37.386 36.7706" fill="white"/>
<path fill-rule="evenodd" clip-rule="evenodd" d="M8 23.5C8 28.1913 11.8087 32 16.5 32C21.1913 32 25 28.1913 25 23.5C25 18.8087 21.1913 15 16.5 15C11.8087 15 8 18.8087 8 23.5ZM11.7158 23.5C11.7158 20.8525 13.8525 18.7158 16.5 18.7158C19.1475 18.7158 21.2842 20.8525 21.2842 23.5C21.2842 26.1475 19.1475 28.2842 16.5 28.2842C13.8525 28.2842 11.7158 26.1475 11.7158 23.5Z" fill="white"/>
<path d="M32.8713 70C32.4049 70 31.9152 69.8134 31.5422 69.4634C30.8193 68.7402 30.8193 67.5505 31.5422 66.8273L40.8229 57.5424C41.5457 56.8192 42.735 56.8192 43.4578 57.5424C44.1807 58.2656 44.1807 59.4554 43.4578 60.1786L34.1771 69.4634C33.8274 69.8367 33.361 70 32.8713 70Z" fill="white"/>
<path d="M42.152 70C41.6856 70 41.196 69.8134 40.8229 69.4634L31.5422 60.1786C30.8193 59.4554 30.8193 58.2656 31.5422 57.5424C32.265 56.8192 33.4543 56.8192 34.1771 57.5424L43.4578 66.8273C44.1807 67.5505 44.1807 68.7402 43.4578 69.4634C43.1081 69.8367 42.6184 70 42.152 70Z" fill="white"/>
<defs>
<linearGradient id="paint0_linear" x1="4.00638" y1="74.0089" x2="61.0141" y2="74.0089" gradientUnits="userSpaceOnUse">
<stop stop-color="#5C8BFC"/>
<stop offset="1" stop-color="#84B0FF"/>
</linearGradient>
<linearGradient id="paint1_linear" x1="-0.0103256" y1="77.0015" x2="52.9978" y2="77.0015" gradientUnits="userSpaceOnUse">
<stop stop-color="#FFB300"/>
<stop offset="1" stop-color="#FF8E37"/>
</linearGradient>
</defs>
</svg>

<svg width="61" height="77" fill="none" xmlns="http://www.w3.org/2000/svg"><path fill-rule="evenodd" clip-rule="evenodd" d="M5.87 74h53.283A1.85 1.85 0 0061 72.112V14.63c0-.519-.186-.991-.537-1.345L47.842.543A1.883 1.883 0 0046.51 0H5.87C4.84 0 4 .85 4 1.888v70.224C4 73.15 4.841 74 5.87 74zm51.39-3.775H7.74V3.775h37.999L57.26 15.41v54.816z" fill="url(#paint0_linear)"/><path d="M0 7v70h53V19.702L40.442 7H0z" fill="url(#paint1_linear)"/><path d="M7.873 51c-.61 0-1.221-.305-1.574-.867a1.888 1.888 0 01.564-2.602l10.22-6.611a1.936 1.936 0 011.855-.117l9.116 4.454 11.793-10.76a1.87 1.87 0 012.655.117 1.86 1.86 0 01-.117 2.65L29.65 48.866a1.906 1.906 0 01-2.09.305l-9.304-4.548-9.327 6.024A1.732 1.732 0 017.873 51z" fill="#fff"/><path d="M40.078 39.41l2.387 2.335a.9.9 0 001.522-.537l1.007-8.197c.07-.584-.445-1.074-1.03-1.004l-8.193 1.167a.898.898 0 00-.492 1.542l2.107 2.055" fill="#fff"/><path fill-rule="evenodd" clip-rule="evenodd" d="M8 23.5c0 4.691 3.809 8.5 8.5 8.5s8.5-3.809 8.5-8.5-3.809-8.5-8.5-8.5S8 18.809 8 23.5zm3.716 0a4.777 4.777 0 014.784-4.784 4.777 4.777 0 014.784 4.784 4.777 4.777 0 01-4.784 4.784 4.777 4.777 0 01-4.784-4.784z" fill="#fff"/><path d="M32.871 70c-.466 0-.956-.187-1.329-.537a1.873 1.873 0 010-2.636l9.28-9.285a1.871 1.871 0 012.636 0 1.873 1.873 0 010 2.637l-9.28 9.284c-.35.374-.817.537-1.307.537z" fill="#fff"/><path d="M42.152 70c-.466 0-.956-.187-1.33-.537l-9.28-9.284a1.873 1.873 0 010-2.637 1.871 1.871 0 012.635 0l9.28 9.285a1.873 1.873 0 010 2.636c-.349.374-.839.537-1.305.537z" fill="#fff"/><defs><linearGradient id="paint0_linear" x1="4.006" y1="74.009" x2="61.014" y2="74.009" gradientUnits="userSpaceOnUse"><stop stop-color="#5C8BFC"/><stop offset="1" stop-color="#84B0FF"/></linearGradient><linearGradient id="paint1_linear" x1="-.01" y1="77.001" x2="52.998" y2="77.001" gradientUnits="userSpaceOnUse"><stop stop-color="#FFB300"/><stop offset="1" stop-color="#FF8E37"/></linearGradient></defs></svg>
